!!!OTL: 63d. Schumann, Papillons, Finale, mm. 1-21
!!!OMD: Finale
**kern	**kern	**dynam
*staff2	*staff1	*staff1
*>[I,A,A1,A,A2,B,B1,B,B2,C]	*>[I,A,A1,A,A2,B,B1,B,B2,C]	*>[I,A,A1,A,A2,B,B1,B,B2,C]
*>norep[I,A,A2,B,B2,C]	*>norep[I,A,A2,B,B2,C]	*>norep[I,A,A2,B,B2,C]
*>I	*>I	*>I
*clefF4	*clefG2	*clefG2
*k[f#c#]	*k[f#c#]	*k[f#c#]
*D:	*D:	*D:
*M3/4	*M3/4	*M3/4
4A\	4a/	f
=1!|:	=1!|:	=1!|:
*>A	*>A	*>A
4.F#\ 4.d\	4.a\ 4.dd\	.
8F#\ 8d\	8a\ 8dd\	.
4F#\ 4d\	4a\ 4dd\	.
=2	=2	=2
4F#\ 4d\	4a\ 4dd\	.
4A\ 4e\	4a\ 4cc#\ 4ee\	.
4d\ 4f#\	4a\ 4dd\ 4ff#\	.
=3	=3	=3
4d\ 4f#\	4a\ 4dd\ 4ff#\	.
4A\ 4e\	4a\ 4cc#\ 4ee\	.
4A\ 4e\	4a\ 4cc#\ 4ee\	.
=4	=4	=4
2A\ 2e\	2a\ 2cc#\ 2ee\	.
4A\ 4e\	4a\ 4cc#\ 4ee\	.
*clefG2	*	*
=5	=5	=5
4.d/ 4.f#/	4.a\ 4.dd\ 4.ff#\	.
8e/ 8g/	8a\ 8ee\ 8gg\	.
4f#/ 4a/	4a\ 4ff#\ 4aa\	.
=6	=6	=6
4f#/ 4a/	4a\ 4ff#\ 4aa\	.
4e/ 4g/	4a\ 4ee\ 4gg\	.
4d/ 4f#/	4a\ 4dd\ 4ff#\	.
=7	=7	=7
4d/ 4f#/	4a\ 4dd\ 4ff#\	.
4A/ 4e/	4a\ 4cc#\ 4ee\	.
4A/ 4e/	4a\ 4cc#\ 4ee\	.
=8	=8	=8
*>A1	*>A1	*>A1
2A/ 2e/	2a\ 2cc#\ 2ee\	.
4A/	4a/	.
=9:|!	=9:|!	=9:|!
*>A2	*>A2	*>A2
2A;/ 2e;/	2a;\ 2cc#;\ 2ee;\	.
4r	8r	.
.	8aa\	.
*clefF4	*	*
=10!|:	=10!|:	=10!|:
*>B	*>B	*>B
*M2/4	*M2/4	*M2/4
8F#\ 8d\	8ff#\L	.
8r	8dd\	.
8A\ 8e\	8ee\	.
8r	8cc#\J	.
=11	=11	=11
.	(ff#q/	.
8d\ 8f#\L	16dd\LL)	.
.	16cc#\	.
8d\ 8f#\J	16dd\	.
.	16ee\JJ	.
8d\ 8f#\	8dd\L	.
8r	8aa\J	.
=12	=12	=12
8F#\ 8d\	8ff#\L	.
8r	8dd\	.
8A\ 8e\	8ee\	.
8r	8cc#\J	.
=13	=13	=13
*>B1	*>B1	*>B1
8F#\ 8d\L	4dd\	.
8F#\ 8d\J	.	.
8F#\ 8d\	8r	.
8r	8aa\	.
=14:|!	=14:|!	=14:|!
*>B2	*>B2	*>B2
8F#\ 8d\L	4dd\	.
8F#\ 8d\	.	.
8F#\ 8d\J	8r	.
8A\	8a/	.
=!|:	=!|:	=!|:
*>C	*>C	*>C
*clefF4	*clefG2	*clefG2
*k[f#c#]	*k[f#c#]	*k[f#c#]
*M3/4	*M3/4	*M3/4
4.F#\ 4.d\	4.a\ 4.dd\	.
.	.	f
8F#\ 8d\	8a\ 8dd\	.
4F#\ 4d\	4a\ 4dd\	.
=2	=2	=2
4F#\ 4d\	4a\ 4dd\	.
4A\ 4e\	4a\ 4cc#\ 4ee\	.
4d\ 4f#\	4a\ 4dd\ 4ff#\	.
=3	=3	=3
4d\ 4f#\	4a\ 4dd\ 4ff#\	.
4A\ 4e\	4a\ 4cc#\ 4ee\	.
4A\ 4e\	4a\ 4cc#\ 4ee\	.
=4	=4	=4
2A\ 2e\	2a\ 2cc#\ 2ee\	.
4A\ 4e\	4a\ 4cc#\ 4ee\	.
*clefG2	*	*
=5	=5	=5
4.d/ 4.f#/	4.a\ 4.dd\ 4.ff#\	.
8e/ 8g/	8a\ 8ee\ 8gg\	.
4f#/ 4a/	4a\ 4ff#\ 4aa\	.
=6	=6	=6
4f#/ 4a/	4a\ 4ff#\ 4aa\	.
4e/ 4g/	4a\ 4ee\ 4gg\	.
4d/ 4f#/	4a\ 4dd\ 4ff#\	.
=7	=7	=7
4d/ 4f#/	2.r	.
4A/ 4e/	.	.
4A/ 4e/	.	.
*clefF4	*	*
=8	=8	=8
4AA/	2.r	.
4G\ 4A\ 4c#\ 4e\	.	.
4G\ 4A\ 4c#\ 4e\	.	.
=9	=9	=9
4AA/	8a\ 8aa\L	.
.	.	mf
.	8b\ 8bb\	.
4A\ 4c#\ 4e\	8cc#\ 8ccc#\	.
.	8dd\ 8ddd\	.
4G\ 4c#\ 4e\	8ee\ 8eee\	.
.	8ff#\ 8fff#\J	.
=	=	=
*-	*-	*-
!!!hum2abc: -q --spacing 2.0
